X:1
T:Title
%%score { 1 | 2 }
L:1/8
Q:1/4=140
M:6/8
K:C
V:1 treble nm="Piano, Piano" snm="Pno."
V:2 treble 
V:1
 z3 z2 E | AEA cAc | ecf ecA | B^Gc BGE | AEc .B2 E | AEA cAc | ecf ecA | B^Gc BGE | %8
 AE^G .A2[K:bass] C, | AC,F, AF,A, | [FA]2 [FA] .[FA]3 | [EGc]2 [EGc] .[EGc]3 | [FAc]AF .[G,EG]3 | %13
 .[CFA]3 .[CFA]3 | [FA]2 [FA] .[FA]3 | [EGc]2 c c[K:bass]E,C, | AC,[K:treble]G .F2 E | AEA cAc | %18
 ecf ecA | B^Gc BGE | AEc .B2 E | AEA cAc | ecf ecA | B^Gc BGE | AE^G .A3 |] %25
V:2
 z6 | .[A,C]3 .[A,CE]3 | [A,CE]2 [A,DF] .[A,CE]3 | [E,^G,B,]2 [E,A,C] .[E,G,B,]3 | %4
 .[A,C]2 [A,C] .[E,^G,B,]3 | .[A,C]3 .[A,CE]3 | [A,CE]2 [A,DF] .[A,CE]3 | %7
 [E,^G,B,]2 [E,A,C] .[E,G,B,]3 | .[A,C]2 [E,B,][K:treble] .[A,C]3 | .[F,CF]3 .[A,CF]3 | %10
 CA,D C[K:bass]A,F, | G,E,A, G,E,C, | F,C,A, .C,2 C, | F,C,F, A,F,A, | CA,D CA,[K:bass]F, | %15
 G,E,[K:treble][A,EG] .[G,EG]3 | .[F,CF]2 [E,C] .F,3 | .[A,C]3 .[A,CE]3 | %18
 [A,CE]2 [A,DF][K:bass] .[A,CE]3 | [E,^G,B,]2 [E,A,C] .[E,G,B,]3 | .[A,C]2 [A,C] .[E,^G,B,]3 | %21
 .[A,C]3 .[A,CE]3 | [A,CE]2 [A,DF] .[A,CE]3 | [E,^G,B,]2 [E,A,C] .[E,G,B,]3 | %24
 .[A,C]2 [E,B,] .[A,C]3 |] %25

